icons/op-accountable-24.svg

<svg xmlns="http://www.w3.org/2000/svg" width="24" height="24" viewBox="0 0 24 24"><path d="M11.2 9.375C11.2 10.828 10.128 12 8.8 12c-1.328 0-2.4-1.172-2.4-2.625 0-1.452 1.072-2.625 2.4-2.625 1.328 0 2.4 1.173 2.4 2.625ZM13.6 19H4v-1.75c0-1.934 2.152-3.5 4.8-3.5 2.648 0 4.8 1.566 4.8 3.5V19Zm6.4-7v1.75h-7.2V12H20Zm0-3.5v1.75h-7.2V8.5H20ZM20 5v1.75h-7.2V5H20Z"/></svg>

<svg width="24" height="24" viewBox="0 0 24 24" fill="none" xmlns="http://www.w3.org/2000/svg">
<path d="M11.2 9.375C11.2 10.8276 10.128 12 8.8 12C7.472 12 6.4 10.8276 6.4 9.375C6.4 7.9225 7.472 6.75 8.8 6.75C10.128 6.75 11.2 7.9225 11.2 9.375ZM13.6 19H4V17.25C4 15.3163 6.152 13.75 8.8 13.75C11.448 13.75 13.6 15.3163 13.6 17.25V19ZM20 12V13.75H12.8V12H20ZM20 8.5V10.25H12.8V8.5H20ZM20 5V6.75H12.8V5H20Z" fill="black"/>
</svg>
